svg/300/outlined/move_down-fill.svg

<svg xmlns="http://www.w3.org/2000/svg" width="48" height="48" viewBox="0 -960 960 960"><path d="m287.308-144.233-32.614-32.614 89.461-89.077q-112.922 4.461-196.23-68.5Q64.617-407.385 64.617-520q0-109.307 77.269-184.653 77.269-75.346 186.961-75.346h101.152v45.384H329.231q-90.846 0-155.038 62.077Q110.001-610.461 110.001-520q0 92.154 71.231 151.923 71.231 59.769 166.308 57.769l-92.846-92.846 32.614-32.615 145.768 145.768-145.768 145.768Zm242.693-35.768v-256.153h329.998v256.153H530.001Zm0-343.845v-256.153h329.998v256.153H530.001Zm45.383-45.384h239.231v-165.385H575.384v165.385Z"/></svg>

<svg xmlns="http://www.w3.org/2000/svg" width="48" height="48" viewBox="0 -960 960 960"><path d="m287.31-144.23-32.62-32.62 89.47-89.07q-112.93 4.46-196.24-68.5-83.3-72.97-83.3-185.58 0-109.31 77.27-184.65Q219.16-780 328.85-780H430v45.39H329.23q-90.84 0-155.04 62.07Q110-610.46 110-520q0 92.15 71.23 151.92 71.23 59.77 166.31 57.77l-92.85-92.84 32.62-32.62L433.08-290 287.31-144.23ZM530-180v-256.15h330V-180H530Zm0-343.85V-780h330v256.15H530Zm45.38-45.38h239.23v-165.38H575.38v165.38Z"/></svg>
